X:969
T:Reel 969
M:4/4
K:Gmaj
L:1/8
d2cA BAGB|A2 (3fed ABcA|B2BA G2dB|Addc BGG2:|Bdgd Bdgd|c2Bc ADDA|Bdgd  (3Bcd gd|ecBc A2G2|Bdgd Bdgd|cBAB cAFA|Bdef gage|dB (3def gdBGG2|
